X: 142
T: Liao bing
L: 1/8
M: 2/4
K: F
AA2c [I:setbarnb 1]| 
d f d c | 
c d c A | 
G4 | 
c c A G | 
c c A G | 
c2A d | 
c4 | 
c f d c | 
A B A G | 
A B A G | 
F4 | 
d e d c | 
d f A c | 
d e d c | 
d4 | 
G2G A | 
G2F2 | 
D4 |]

@@@ Tune index: 9016
